X:5592
T:Robertson's Reel
O:england
M:4/4
L:1/8
R:Reel
K:A
AB|c2 Bc e2 cB|ABAF E2 AB|c2 Bc e2 c2|B4 B2 AB|
c2 Bc e2 cB|ABAF E2 AB|cBce BABc|A4 A2:||:
cd|e2 ce a2 ga|fecd e2 cd|e2 cea2 g2|f4 f2 e2|
a2 A2 A2 cB|ABAF E2 AB|cBce BABc|A4 A2:||


